X: 1
T: Mistress Winter's Jump
M: 6/8
L: 1/8
R: jig
K: Gmaj
dgd g2d | e>dc B2G | Bd2 AcB | A>GA B3 :|
|:d2G A2B | c>dB A3 | GBc d3 | e>fg f3 |
gdB dBG | ecA afd | g2d g2d | e>dc B2G :|
